icons/percona.svg

<?xml version="1.0" encoding="UTF-8" standalone="no"?>
<svg width="256px" height="250px" viewBox="0 0 256 250" version="1.1" xmlns="http://www.w3.org/2000/svg" xmlns:xlink="http://www.w3.org/1999/xlink" preserveAspectRatio="xMidYMid">
    <defs>
        <linearGradient x1="50%" y1="0%" x2="50%" y2="100%" id="linearGradient-1">
            <stop stop-color="#FBB32F" offset="0%"></stop>
            <stop stop-color="#C11511" offset="50.4738739%"></stop>
            <stop stop-color="#C11411" offset="100%"></stop>
        </linearGradient>
    </defs>
	<g>
		<path d="M128,0.5784 C57.308,0.5784 0,56.4134 0,125.2894 C0,168.3754 22.427,206.3554 56.526,228.7594 L56.526,125.3544 C56.525,125.1964 56.503,125.0444 56.503,124.8874 C56.503,124.7294 56.525,124.5774 56.526,124.4194 L56.526,123.5424 L56.569,123.5424 C57.27,83.3964 88.904,51.0614 127.892,51.0614 C167.319,51.0614 199.28,84.1144 199.28,124.8874 C199.28,165.6594 167.319,198.7124 127.892,198.7124 C112.536,198.7124 98.349,193.6504 86.705,185.1204 L86.705,243.3274 C99.665,247.6314 113.545,250.0004 128,250.0004 C198.692,250.0004 256,194.1654 256,125.2894 C256,56.4134 198.692,0.5784 128,0.5784" fill="url(#linearGradient-1)"></path>
		<path d="M171.1966,127.4716 C171.1966,151.0616 152.0736,170.1846 128.4836,170.1846 C104.8936,170.1846 85.7696,151.0616 85.7696,127.4716 C85.7696,103.8816 104.8936,84.7586 128.4836,84.7586 C152.0736,84.7586 171.1966,103.8816 171.1966,127.4716" fill="#FCB42F"></path>
	</g>
</svg>

<svg xmlns="http://www.w3.org/2000/svg" viewBox="0 0 256 249.422">
  <defs>
    <linearGradient id="a" x1="126.345" x2="126.345" y1=".586" y2="253.276" gradientTransform="scale(1.0131 .98707)" gradientUnits="userSpaceOnUse">
      <stop offset="0%" stop-color="#FBB32F"/>
      <stop offset="50.474%" stop-color="#C11511"/>
      <stop offset="100%" stop-color="#C11411"/>
    </linearGradient>
  </defs>
  <path fill="url(#a)" d="M128 .578C57.308.578 0 56.413 0 125.29c0 43.086 22.427 81.066 56.526 103.47V125.354c-.001-.158-.023-.31-.023-.467 0-.158.022-.31.023-.468v-.877h.043c.701-40.146 32.335-72.48 71.323-72.48 39.427 0 71.388 33.052 71.388 73.825 0 40.772-31.961 73.825-71.388 73.825-15.356 0-29.543-5.062-41.187-13.592v58.207A130.796 130.796 0 0 0 128 250c70.692 0 128-55.835 128-124.71C256 56.412 198.692.577 128 .577" style="fill:url(#a)" transform="translate(0 -.578)"/>
  <path fill="#fcb42f" d="M171.197 126.893c0 23.59-19.123 42.713-42.713 42.713S85.77 150.483 85.77 126.893s19.124-42.713 42.714-42.713 42.713 19.123 42.713 42.713"/>
</svg>
